public/svg/user_stories_4.svg

<svg width="136" height="63" viewBox="0 0 136 63" fill="none" xmlns="http://www.w3.org/2000/svg">
<path d="M21.0268 39.8332C17.6972 39.8332 15 37.136 15 33.825V29.1933C15 25.8637 17.6972 23.1665 21.0268 23.1665H24.4494C25.3423 23.1665 26.0677 23.892 26.0677 24.7848C26.0677 25.6777 25.3423 26.4031 24.4494 26.4031H21.0268C19.5015 26.4031 18.2552 27.6494 18.2552 29.1747V33.8064C18.2552 35.3317 19.5015 36.578 21.0268 36.578H24.4494C25.3423 36.578 26.0677 37.3034 26.0677 38.1963C26.0677 39.0891 25.3423 39.8146 24.4494 39.8146H21.0268V39.8332Z" fill="#1B2738"/>
<path d="M72.31 23.1665C68.9804 23.1665 66.2832 25.8637 66.2832 29.1933V33.825C66.2832 37.1546 68.9804 39.8518 72.31 39.8518C75.6396 39.8518 78.3368 37.1546 78.3368 33.825V29.1933C78.3368 25.8637 75.6396 23.1665 72.31 23.1665ZM75.0816 33.825C75.0816 35.3503 73.8353 36.5966 72.31 36.5966C70.7847 36.5966 69.5384 35.3503 69.5384 33.825V29.1933C69.5384 27.668 70.7847 26.4217 72.31 26.4217C73.8353 26.4217 75.0816 27.668 75.0816 29.1933V33.825Z" fill="#1B2738"/>
<path d="M27.7041 38.2148C27.7041 39.1077 28.4296 39.8331 29.3225 39.8331C30.2153 39.8331 30.9408 39.1077 30.9408 38.2148V29.1932C30.9408 27.6679 32.187 26.4217 33.7123 26.4217H35.7957C36.6885 26.4217 37.414 25.6962 37.414 24.8034C37.414 23.9105 36.6885 23.1851 35.7957 23.1851H33.7123C30.3827 23.1851 27.6855 25.8822 27.6855 29.2118V38.2148H27.7041Z" fill="#1B2738"/>
<path d="M50.1376 29.1933C50.1376 25.8637 47.4404 23.1665 44.1108 23.1665C40.7812 23.1665 38.084 25.8637 38.084 29.1933V33.825C38.084 37.1546 40.7812 39.8518 44.1108 39.8518C45.2082 39.8518 46.2313 39.5542 47.1242 39.0519C47.4032 39.5356 47.924 39.8518 48.5193 39.8518C49.4121 39.8518 50.1376 39.1263 50.1376 38.2335V29.1933ZM46.9009 33.825C46.9009 35.3503 45.6547 36.5966 44.1294 36.5966C42.6041 36.5966 41.3578 35.3503 41.3578 33.825V29.1933C41.3578 27.668 42.6041 26.4217 44.1294 26.4217C45.6547 26.4217 46.9009 27.668 46.9009 29.1933V33.825Z" fill="#1B2738"/>
<path d="M62.6188 23.1665C61.7259 23.1665 61.0005 23.892 61.0005 24.7848V33.8064C61.0005 35.3317 59.7542 36.578 58.2289 36.578C56.7036 36.578 55.4573 35.3317 55.4573 33.8064V24.7848C55.4573 23.892 54.7319 23.1665 53.839 23.1665C52.9461 23.1665 52.2207 23.892 52.2207 24.7848V33.8064C52.2207 36.5594 54.0808 38.8845 56.6292 39.5914V42.3629C56.6292 43.2558 57.3546 43.9812 58.2475 43.9812C59.1403 43.9812 59.8658 43.2558 59.8658 42.3629V39.5914C62.3956 38.8845 64.2557 36.5594 64.2557 33.8064V24.7848C64.2371 23.892 63.5116 23.1665 62.6188 23.1665Z" fill="#1B2738"/>
<path d="M120.079 31.5L113.829 37.75V25.25L120.079 31.5Z" fill="#1B2738"/>
<path d="M107.561 37.75L113.829 31.5H107.561V37.75Z" fill="#1B2738"/>
<path d="M113.829 25.25H107.579V31.5H113.829V25.25Z" fill="#1B2738"/>
<path d="M113.829 25.25H107.561V19L113.829 25.25Z" fill="#1B2738"/>
<path d="M107.562 31.5L95.0615 19H107.562V31.5Z" fill="#1B2738"/>
<path d="M95.0605 44L107.561 31.5V44H95.0605Z" fill="#1B2738"/>
<path d="M113.829 31.5V37.75L107.561 44V37.75L113.829 31.5Z" fill="#1B2738"/>
<path d="M83.6195 26.4031H86.391C87.9163 26.4031 89.1626 27.6494 89.1626 29.1747V38.1963C89.1626 39.0891 89.8881 39.8146 90.7809 39.8146C91.6738 39.8146 92.3992 39.0891 92.3992 38.1963V29.1933C92.3992 25.8637 89.7021 23.1665 86.3724 23.1665H81.9826C81.0897 23.1665 80.3643 23.892 80.3643 24.7848V38.2149C80.3643 39.1077 81.0897 39.8332 81.9826 39.8332C82.8754 39.8332 83.6009 39.1077 83.6009 38.2149V26.4031H83.6195Z" fill="#1B2738"/>
</svg>

<svg xmlns="http://www.w3.org/2000/svg" width="136" height="63" fill="#1b2738"  xmlns:v="https://vecta.io/nano"><path d="M21.027 39.833c-3.33 0-6.027-2.697-6.027-6.008v-4.632c0-3.33 2.697-6.027 6.027-6.027h3.423a1.62 1.62 0 0 1 1.618 1.618 1.62 1.62 0 0 1-1.618 1.618h-3.423a2.78 2.78 0 0 0-2.772 2.772v4.632a2.78 2.78 0 0 0 2.772 2.772h3.423a1.62 1.62 0 0 1 1.618 1.618 1.62 1.62 0 0 1-1.618 1.618h-3.423v.019zM72.31 23.167c-3.33 0-6.027 2.697-6.027 6.027v4.632c0 3.33 2.697 6.027 6.027 6.027s6.027-2.697 6.027-6.027v-4.632c0-3.33-2.697-6.027-6.027-6.027zm2.772 10.659a2.78 2.78 0 0 1-2.772 2.772 2.78 2.78 0 0 1-2.772-2.772v-4.632a2.78 2.78 0 0 1 2.772-2.772 2.78 2.78 0 0 1 2.772 2.772v4.632zm-47.378 4.389a1.62 1.62 0 0 0 1.618 1.618 1.62 1.62 0 0 0 1.618-1.618v-9.022a2.78 2.78 0 0 1 2.771-2.771h2.083a1.62 1.62 0 0 0 1.618-1.618 1.62 1.62 0 0 0-1.618-1.618h-2.083c-3.33 0-6.027 2.697-6.027 6.027v9.003h.019zm22.434-9.022c0-3.33-2.697-6.027-6.027-6.027s-6.027 2.697-6.027 6.027v4.632c0 3.33 2.697 6.027 6.027 6.027 1.097 0 2.121-.298 3.013-.8a1.6 1.6 0 0 0 1.395.8 1.62 1.62 0 0 0 1.618-1.618v-9.04zm-3.237 4.632a2.78 2.78 0 0 1-2.772 2.772 2.78 2.78 0 0 1-2.772-2.772v-4.632a2.78 2.78 0 0 1 2.772-2.772 2.78 2.78 0 0 1 2.772 2.772v4.632zm15.718-10.658a1.62 1.62 0 0 0-1.618 1.618v9.022a2.78 2.78 0 0 1-2.772 2.772 2.78 2.78 0 0 1-2.772-2.772v-9.022a1.62 1.62 0 0 0-1.618-1.618 1.62 1.62 0 0 0-1.618 1.618v9.022a6.01 6.01 0 0 0 4.408 5.785v2.772a1.62 1.62 0 0 0 1.618 1.618 1.62 1.62 0 0 0 1.618-1.618v-2.772c2.53-.707 4.39-3.032 4.39-5.785v-9.022c-.019-.893-.744-1.618-1.637-1.618zm57.46 8.333l-6.25 6.25v-12.5l6.25 6.25z"/><path d="M107.561 37.75l6.268-6.25h-6.268v6.25z"/><path d="M113.829 25.25h-6.25v6.25h6.25v-6.25z"/><path d="M113.829 25.25h-6.268V19l6.268 6.25z"/><path d="M107.562 31.5L95.062 19h12.501v12.5z"/><path d="M95.061 44l12.501-12.5V44H95.061z"/><path d="M113.829 31.5v6.25L107.561 44v-6.25l6.268-6.25zM83.62 26.403h2.772a2.78 2.78 0 0 1 2.772 2.772v9.022a1.62 1.62 0 0 0 1.618 1.618 1.62 1.62 0 0 0 1.618-1.618v-9.003c0-3.33-2.697-6.027-6.027-6.027h-4.39a1.62 1.62 0 0 0-1.618 1.618v13.43a1.62 1.62 0 0 0 1.618 1.618 1.62 1.62 0 0 0 1.618-1.618V26.403h.019z"/></svg>
